src/22x22/places/folder-gruvbox-mix-orange-java.svg

<?xml version="1.0" encoding="UTF-8"?>
<svg width="22" height="22" version="1" xmlns="http://www.w3.org/2000/svg">
 <rect x="1" y="8.5" width="20" height="12" rx="1" ry="1" opacity=".2"/>
 <path d="m1 16c0 0.554 0.446 1 1 1h18c0.554 0 1-0.446 1-1v-11c0-0.554-0.446-1-1-1h-9c-1.5 0-2-2-3.5-2h-5.5c-0.554 0-1 0.446-1 1" fill="#b94c07"/>
 <rect x="1" y="7.5" width="20" height="12" rx="1" ry="1" opacity=".2"/>
 <rect x="3" y="6" width="16" height="8" rx="1" ry="1" fill="#F6E0B4"/>
 <rect x="1" y="8" width="20" height="12" rx="1" ry="1" fill="#f28534"/>
 <path d="m2 2c-0.554 0-1 0.446-1 1v0.5c0-0.554 0.446-1 1-1h5.5c1.5 0 2 2 3.5 2h9c0.554 0 1 0.446 1 1v-0.5c0-0.554-0.446-1-1-1h-9c-1.5 0-2-2-3.5-2z" fill="#F6E0B4" opacity=".1"/>
 <path d="m10.586 10s0.413 0.233 0.122 0.844c-0.441 0.921 0.406 1.132 0.406 1.132s-0.269-0.217 0.09-0.977c0.396-0.842-0.618-0.999-0.618-0.999zm1.6 0.92s-0.821 0.315-0.292 1.176c0.35 0.57-0.038 0.853-0.038 0.853s0.992-0.281 0.514-1.069c-0.431-0.712-0.184-0.96-0.184-0.96zm-2.365 0.023s-0.718 0.548-6e-3 1.221c0.47 0.448 0.162 0.836 0.162 0.836s0.891-0.566 0.247-1.186c-0.582-0.558-0.403-0.87-0.403-0.87zm0.156 2.057h-1.977l1 4h4l0.138-0.549c0.116 0.029 0.237 0.049 0.362 0.049 0.828 0 1.5-0.672 1.5-1.5 0-0.703-0.485-1.289-1.138-1.451l0.138-0.549h-4.024zm3.765 1.031c6e-3 1e-3 0.011 2e-3 0.017 3e-3 0.267 0.071 0.367 0.562 0.224 1.096-0.14 0.52-0.46 0.891-0.725 0.839z" fill="#4E3B30"/>
</svg>

<svg xmlns="http://www.w3.org/2000/svg" width="22" height="22" version="1">
 <rect style="opacity:0.2" width="20" height="12" x="1" y="8.5" rx="1" ry="1"/>
 <path style="fill:#b94c07" d="M 1,16 C 1,16.554 1.446,17 2,17 H 20 C 20.554,17 21,16.554 21,16 V 5 C 21,4.446 20.554,4 20,4 H 11 C 9.5,4 9,2 7.5,2 H 2 C 1.446,2 1,2.446 1,3"/>
 <rect style="opacity:0.2" width="20" height="12" x="1" y="7.5" rx="1" ry="1"/>
 <rect style="fill:#F6E0B4" width="16" height="8" x="3" y="6" rx="1" ry="1"/>
 <rect style="fill:#f28534" width="20" height="12" x="1" y="8" rx="1" ry="1"/>
 <path style="opacity:0.1;fill:#F6E0B4" d="M 2,2 C 1.446,2 1,2.446 1,3 V 3.5 C 1,2.946 1.446,2.5 2,2.5 H 7.5 C 9,2.5 9.5,4.5 11,4.5 H 20 C 20.554,4.5 21,4.946 21,5.5 V 5 C 21,4.446 20.554,4 20,4 H 11 C 9.5,4 9,2 7.5,2 Z"/>
 <path style="fill:#4E3B30" d="M 10.586,10 C 10.586,10 10.999,10.233 10.708,10.844 10.267,11.765 11.114,11.976 11.114,11.976 11.114,11.976 10.845,11.759 11.204,10.999 11.6,10.157 10.586,10 10.586,10 Z M 12.186,10.92 C 12.186,10.92 11.365,11.235 11.894,12.096 12.244,12.666 11.856,12.949 11.856,12.949 11.856,12.949 12.848,12.668 12.37,11.88 11.939,11.168 12.186,10.92 12.186,10.92 Z M 9.821,10.943 C 9.821,10.943 9.103,11.491 9.815,12.164 10.285,12.612 9.977,13 9.977,13 9.977,13 10.868,12.434 10.224,11.814 9.642,11.256 9.821,10.944 9.821,10.944 Z M 9.977,13 H 8 L 9,17 H 13 L 13.138,16.451 C 13.254,16.48 13.375,16.5 13.5,16.5 14.328,16.5 15,15.828 15,15 15,14.297 14.515,13.711 13.862,13.549 L 14,13 H 9.976 Z M 13.742,14.031 C 13.748,14.032 13.753,14.033 13.759,14.034 14.026,14.105 14.126,14.596 13.983,15.13 13.843,15.65 13.523,16.021 13.258,15.969 Z"/>
</svg>
